X:1
T:Title
%%score { ( 1 3 ) | ( 2 4 ) }
L:1/8
Q:1/4=108
M:3/4
K:Bb
V:1 treble nm="Grand Piano"
V:3 treble 
V:2 bass 
V:4 bass 
V:1
 [DF]2 [_D=E]2 [=DF]2 | [EG]2 [DF]2 [DB]2 | A2 B2 c2 | c6 | E2 D2 E2 | A2 G2 F2 | %6
w: James~McGranahan * *||||||
 [EG]2 [DF]2 [_D=E]2 | [DF]6 | [DF]2 [_D=E]2 [=DF]2 | [EG]2 [DF]2 [DFB]2 | A2 B2 c2 | d6 | %12
w: ||||||
 d3 c B2 | [GB]3 [FA] G2 | A2 F2 c2 | [DB]6 | A3 B c2 | c2 B2 A2 | [DB]2 [Ec]2 [Fd]2 | [DF]6 | %20
w: ||||||||
 G3 A B2 | B2 [Ac]2 [Bd]2 | [=Ed]2 [EG]2 [Ec]2 | c4 _d2 | [Fd]3 [Ge] [Fd]2 | [Fd]2 [Ec]2 [DB]2 | %26
w: ||||||
 [B,D]2 [CE]2 [DF]2 | [EG]6 | [Ec]3 [Fd] .[Ge]2 | [Ge]2 [FA]2 [Ec]2 | B6- | B6 |] %32
w: ||||||
V:2
 [B,,B,]2 [B,,B,]2 [B,,B,]2 | [B,,B,]2 [B,,B,]2 [B,,F,]2 | [F,C]2 [F,D]2 [F,A,E]2 | [F,A,E]6 | %4
 [F,A,C]2 [F,A,=B,]2 [F,A,C]2 | [F,CE]2 [F,B,E]2 [F,A,E]2 | [B,,B,]2 [B,,B,]2 [B,,B,]2 | [B,,B,]6 | %8
 [B,,B,]2 [B,,B,]2 [B,,B,]2 | [B,,B,]2 [B,,B,]2 B,,2 | [F,CF]2 [G,C=E]2 [A,C_E]2 | %11
 D2 z2[K:treble] z2 | [G,B,G]3[K:bass] [^F,A,D] [G,B,D]2 | [E,C]3 [E,C] [E,CE]2 | %14
 [F,CE]2 [F,A,E]2 [F,A,E]2 | [B,,B,]6 | [F,CF]3 [F,DF] [F,EF]2 | [F,A,E]2 [F,B,D]2 [F,CE]2 | %18
 [B,,B,]2 [B,,B,]2 [B,,B,]2 | [B,,B,]6 | [G,B,D]3 [G,CG] [G,DG]2 | %21
 [G,DG]2[K:bass] [^F,C]2 [G,B,]2 | [C,B,]2 [C,B,]2 [C,B,]2 | [F,A,F]6 | [B,,B,]3 [B,,B,] [B,,B,]2 | %25
 [B,,B,]2 [B,,F,]2 [B,,F,]2 | [B,,_A,]2 [B,,A,]2 [B,,A,]2 | [E,B,]6 | [E,G,]3 [D,=B,] .[C,C]2 | %29
 [F,C]2 [F,C]2 [F,A,]2 | z2 D,2 G,2 | F,6 |] %32
V:3
 x6 | x6 | x6 | x6 | x6 | x6 | x6 | x6 | x6 | x6 | x6 | z2 F2 ^F2 | x6 | x6 | x6 | x6 | x6 | x6 | %18
 x6 | x6 | x6 | x6 | x6 | x6 | x6 | x6 | x6 | x6 | x6 | x6 | [B,D]2 F2 E2 | D6 |] %32
V:4
 x6 | x6 | x6 | x6 | x6 | x6 | x6 | x6 | x6 | x6 | x6 | B,4[K:treble] [A,C]2 | x3[K:bass] x3 | x6 | %14
 x6 | x6 | x6 | x6 | x6 | x6 | x6 | x2[K:bass] x4 | x6 | x6 | x6 | x6 | x6 | x6 | x6 | x6 | B,,6- | %31
 B,,6 |] %32

